picto/stairs-down-right-framed.svg

<svg class="color-immutable" width="30" height="30" viewBox="0 0 30 30" fill="none" xmlns="http://www.w3.org/2000/svg"><path d="M29.9999 0H0V29.9999H29.9999V0Z" fill="#2D327D"/><path d="M25.4999 2.99999C26.3249 2.99999 26.9999 3.67499 26.9999 4.49999V25.4999C26.9999 26.3249 26.3249 26.9999 25.4999 26.9999H4.49999C3.67499 26.9999 2.99999 26.3249 2.99999 25.4999V4.49999C2.99999 3.67499 3.67499 2.99999 4.49999 2.99999H25.4999ZM25.4999 2.62499H4.49999C3.46612 2.62499 2.62499 3.46612 2.62499 4.49999V25.4999C2.62499 26.5338 3.46612 27.3749 4.49999 27.3749H25.4999C26.5338 27.3749 27.3749 26.5338 27.3749 25.4999V4.49999C27.3749 3.46612 26.5338 2.62499 25.4999 2.62499Z" fill="white"/><path d="M10.0875 20.552H13.5009V21.9398H16.9142V23.3276H20.3276V24.0028H16.239V22.6151H12.8258V21.2271H9.41252V19.8392H5.99913V19.1642H10.0875V20.552Z" fill="white"/><path d="M23.4742 14.5629C23.4073 14.5629 23.341 14.5494 23.2791 14.5236L22.7282 14.2935V13.1959L23.6695 13.5891C23.8579 13.6679 23.9806 13.8522 23.9806 14.0563C23.9806 14.3361 23.7538 14.5629 23.4742 14.5629Z" fill="white"/><path d="M23.3096 24.0028C22.9265 24.0028 22.6157 23.6918 22.6157 23.3088V20.027L21.0027 17.2512V19.5996C21.0027 19.7374 20.9648 19.8723 20.8934 19.9899L19.3008 22.6061C19.175 22.8128 18.9502 22.9392 18.7081 22.9392C18.3251 22.9392 18.0141 22.6283 18.0141 22.245C18.0141 22.1178 18.0492 21.9932 18.1153 21.8842L19.5024 19.6057V11.3908L18.7521 12.4785V15.2259C18.7521 15.5154 18.5169 15.7509 18.227 15.7509C17.9371 15.7509 17.702 15.5154 17.702 15.2259V12.3192C17.702 12.1671 17.7481 12.0183 17.8345 11.8931L19.3925 9.63418C19.6726 9.22805 20.1343 8.98558 20.6276 8.98558C21.4559 8.98558 22.128 9.6578 22.128 10.4859V16.2013L23.902 19.254C23.9684 19.3687 24.0035 19.4988 24.0035 19.6311V23.3087C24.0035 23.6918 23.6926 24.0028 23.3096 24.0028Z" fill="white"/><path d="M20.8249 8.63518C20.1002 8.63518 19.512 8.04695 19.512 7.32231C19.512 6.59751 20.1002 6.00966 20.8249 6.00966C21.5496 6.00966 22.1376 6.59751 22.1376 7.32231C22.1376 8.04695 21.5496 8.63518 20.8249 8.63518Z" fill="white"/></svg>

<svg class="color-immutable" width="30" height="30" viewBox="0 0 30 30" fill="none" xmlns="http://www.w3.org/2000/svg"><path d="M30 0H0v30h30V0Z" fill="#2D327D"/><path d="M25.5 3c.825 0 1.5.675 1.5 1.5v21c0 .825-.675 1.5-1.5 1.5h-21c-.825 0-1.5-.675-1.5-1.5v-21C3 3.675 3.675 3 4.5 3h21Zm0-.375h-21A1.877 1.877 0 0 0 2.625 4.5v21c0 1.034.841 1.875 1.875 1.875h21a1.877 1.877 0 0 0 1.875-1.875v-21A1.877 1.877 0 0 0 25.5 2.625Z" fill="#fff"/><path d="M10.088 20.552H13.5v1.388h3.413v1.388h3.414v.675h-4.089v-1.388h-3.413v-1.388H9.413V19.84H5.999v-.675h4.089v1.388ZM23.474 14.563a.507.507 0 0 1-.195-.04l-.55-.23v-1.097l.94.393a.507.507 0 0 1-.195.974Z" fill="#fff"/><path d="M23.31 24.003a.694.694 0 0 1-.694-.694v-3.282l-1.613-2.776V19.6a.752.752 0 0 1-.11.39l-1.592 2.616a.694.694 0 0 1-1.186-.722l1.387-2.278V11.39l-.75 1.088v2.747a.525.525 0 0 1-1.05 0v-2.907c0-.152.046-.3.132-.426l1.558-2.259a1.5 1.5 0 0 1 2.736.852V16.2l1.774 3.053a.753.753 0 0 1 .101.377v3.678c0 .383-.31.694-.693.694ZM20.825 8.635a1.313 1.313 0 1 1 0-2.627 1.313 1.313 0 0 1 0 2.627Z" fill="#fff"/></svg>
